public/images/web/eduCool/logo_eduCool.svg

<svg xmlns="http://www.w3.org/2000/svg" width="500" height="345" fill="none"><path fill="url(#a)" d="M0 0h500v345H0z"/><path fill="#000" d="M160.93 191.486c-2.772 0-5.166-.54-7.182-1.62-1.98-1.116-3.528-2.682-4.644-4.698-1.08-2.016-1.62-4.428-1.62-7.236 0-2.736.54-5.112 1.62-7.128 1.08-2.052 2.556-3.654 4.428-4.806 1.908-1.152 4.104-1.728 6.588-1.728 1.764 0 3.348.306 4.752.918a9.371 9.371 0 0 1 3.564 2.538c1.008 1.116 1.764 2.466 2.268 4.05.54 1.584.81 3.366.81 5.346 0 .576-.162 1.008-.486 1.296-.324.252-.792.378-1.404.378h-18.792v-2.862h17.766l-.864.702c0-1.944-.288-3.582-.864-4.914-.576-1.368-1.422-2.412-2.538-3.132-1.08-.72-2.448-1.08-4.104-1.08-1.836 0-3.402.432-4.698 1.296-1.26.828-2.214 1.998-2.862 3.51-.648 1.476-.972 3.204-.972 5.184v.324c0 3.312.792 5.832 2.376 7.56 1.62 1.728 3.906 2.592 6.858 2.592 1.224 0 2.43-.162 3.618-.486 1.224-.324 2.412-.864 3.564-1.62.504-.324.954-.468 1.35-.432.432 0 .774.126 1.026.378.252.216.414.504.486.864.108.324.072.684-.108 1.08-.144.396-.45.738-.918 1.026-1.188.864-2.592 1.53-4.212 1.998-1.62.468-3.222.702-4.806.702Zm26.904 0c-2.34 0-4.392-.558-6.156-1.674-1.728-1.116-3.078-2.682-4.05-4.698-.936-2.052-1.404-4.464-1.404-7.236 0-2.808.468-5.22 1.404-7.236.972-2.052 2.322-3.618 4.05-4.698 1.764-1.116 3.816-1.674 6.156-1.674 2.376 0 4.41.594 6.102 1.782 1.692 1.188 2.826 2.79 3.402 4.806h-.594v-16.092c0-.72.18-1.26.54-1.62.396-.396.954-.594 1.674-.594.684 0 1.206.198 1.566.594.396.36.594.9.594 1.62v34.344c0 .72-.18 1.278-.54 1.674-.36.396-.9.594-1.62.594-.684 0-1.224-.198-1.62-.594-.36-.396-.54-.954-.54-1.674v-5.13l.594.756c-.576 2.052-1.728 3.69-3.456 4.914-1.692 1.224-3.726 1.836-6.102 1.836Zm.918-3.51c1.62 0 3.042-.396 4.266-1.188 1.224-.792 2.16-1.944 2.808-3.456.684-1.512 1.026-3.33 1.026-5.454 0-3.276-.738-5.778-2.214-7.506-1.44-1.728-3.402-2.592-5.886-2.592-1.656 0-3.096.396-4.32 1.188-1.188.756-2.124 1.89-2.808 3.402-.648 1.476-.972 3.312-.972 5.508 0 3.24.738 5.742 2.214 7.506 1.476 1.728 3.438 2.592 5.886 2.592Zm29.863 3.51c-2.124 0-3.888-.378-5.292-1.134-1.368-.792-2.412-1.962-3.132-3.51-.684-1.548-1.026-3.474-1.026-5.778v-14.472c0-.756.18-1.314.54-1.674.396-.36.936-.54 1.62-.54.72 0 1.26.18 1.62.54.396.36.594.918.594 1.674v14.418c0 2.304.468 4.032 1.404 5.184.972 1.116 2.484 1.674 4.536 1.674 2.232 0 4.05-.756 5.454-2.268 1.404-1.512 2.106-3.492 2.106-5.94v-13.068c0-.756.18-1.314.54-1.674.396-.36.954-.54 1.674-.54.684 0 1.206.18 1.566.54.396.36.594.918.594 1.674v22.518c0 1.512-.702 2.268-2.106 2.268-.684 0-1.224-.198-1.62-.594-.36-.396-.54-.954-.54-1.674v-4.914l.702.756c-.72 2.124-1.908 3.744-3.564 4.86-1.62 1.116-3.51 1.674-5.67 1.674Zm38.045 0c-3.744 0-6.948-.792-9.612-2.376-2.664-1.584-4.716-3.834-6.156-6.75-1.404-2.916-2.106-6.39-2.106-10.422 0-3.024.396-5.724 1.188-8.1.828-2.412 1.998-4.446 3.51-6.102 1.548-1.692 3.438-2.988 5.67-3.888 2.232-.936 4.734-1.404 7.506-1.404 2.232 0 4.356.324 6.372.972 2.016.612 3.762 1.53 5.238 2.754.468.36.774.774.918 1.242.18.432.198.864.054 1.296a2.087 2.087 0 0 1-.648 1.026c-.288.252-.648.378-1.08.378-.432 0-.918-.18-1.458-.54a13.332 13.332 0 0 0-4.266-2.322c-1.548-.504-3.222-.756-5.022-.756-2.844 0-5.256.612-7.236 1.836-1.98 1.188-3.474 2.934-4.482 5.238-1.008 2.304-1.512 5.094-1.512 8.37 0 3.276.504 6.084 1.512 8.424 1.008 2.304 2.502 4.068 4.482 5.292 1.98 1.188 4.392 1.782 7.236 1.782 1.764 0 3.438-.252 5.022-.756a14.771 14.771 0 0 0 4.374-2.376c.54-.36 1.026-.522 1.458-.486.432 0 .792.126 1.08.378.288.252.486.576.594.972.144.396.144.81 0 1.242-.108.432-.378.81-.81 1.134-1.512 1.296-3.294 2.286-5.346 2.97-2.016.648-4.176.972-6.48.972Zm28.28 0c-2.556 0-4.77-.558-6.642-1.674-1.872-1.116-3.33-2.682-4.374-4.698-1.008-2.052-1.512-4.464-1.512-7.236 0-2.088.288-3.96.864-5.616.576-1.692 1.422-3.132 2.538-4.32a11.018 11.018 0 0 1 3.942-2.7c1.548-.648 3.276-.972 5.184-.972 2.556 0 4.77.558 6.642 1.674 1.872 1.116 3.312 2.7 4.32 4.752 1.044 2.016 1.566 4.41 1.566 7.182 0 2.088-.288 3.96-.864 5.616-.576 1.656-1.422 3.096-2.538 4.32a11.51 11.51 0 0 1-3.996 2.754c-1.512.612-3.222.918-5.13.918Zm0-3.51c1.62 0 3.042-.396 4.266-1.188 1.224-.792 2.16-1.944 2.808-3.456.684-1.512 1.026-3.33 1.026-5.454 0-3.276-.738-5.778-2.214-7.506-1.44-1.728-3.402-2.592-5.886-2.592-1.656 0-3.096.396-4.32 1.188-1.188.756-2.124 1.89-2.808 3.402-.648 1.476-.972 3.312-.972 5.508 0 3.24.738 5.742 2.214 7.506 1.476 1.728 3.438 2.592 5.886 2.592Zm30.006 3.51c-2.556 0-4.77-.558-6.642-1.674-1.872-1.116-3.33-2.682-4.374-4.698-1.008-2.052-1.512-4.464-1.512-7.236 0-2.088.288-3.96.864-5.616.576-1.692 1.422-3.132 2.538-4.32a11.018 11.018 0 0 1 3.942-2.7c1.548-.648 3.276-.972 5.184-.972 2.556 0 4.77.558 6.642 1.674 1.872 1.116 3.312 2.7 4.32 4.752 1.044 2.016 1.566 4.41 1.566 7.182 0 2.088-.288 3.96-.864 5.616-.576 1.656-1.422 3.096-2.538 4.32a11.51 11.51 0 0 1-3.996 2.754c-1.512.612-3.222.918-5.13.918Zm0-3.51c1.62 0 3.042-.396 4.266-1.188 1.224-.792 2.16-1.944 2.808-3.456.684-1.512 1.026-3.33 1.026-5.454 0-3.276-.738-5.778-2.214-7.506-1.44-1.728-3.402-2.592-5.886-2.592-1.656 0-3.096.396-4.32 1.188-1.188.756-2.124 1.89-2.808 3.402-.648 1.476-.972 3.312-.972 5.508 0 3.24.738 5.742 2.214 7.506 1.476 1.728 3.438 2.592 5.886 2.592Zm27.089 3.51c-2.592 0-4.572-.792-5.94-2.376-1.368-1.584-2.052-3.852-2.052-6.804v-27.54c0-.72.18-1.26.54-1.62.36-.396.9-.594 1.62-.594.684 0 1.224.198 1.62.594.396.36.594.9.594 1.62v27.216c0 1.944.378 3.402 1.134 4.374.792.936 1.944 1.404 3.456 1.404.324 0 .612-.018.864-.054a5.34 5.34 0 0 1 .756-.054c.396-.036.666.054.81.27.18.216.27.648.27 1.296s-.144 1.134-.432 1.458c-.288.324-.756.54-1.404.648-.288.036-.594.072-.918.108-.324.036-.63.054-.918.054Z"/><defs><linearGradient id="a" x1="250.868" x2="249.132" y1="0" y2="345" gradientUnits="userSpaceOnUse"><stop stop-color="#1196A0"/><stop offset="1" stop-color="#169D61"/></linearGradient></defs></svg>

<svg width="500" height="345" viewBox="0 0 500 345" fill="none" xmlns="http://www.w3.org/2000/svg">
<rect width="500" height="345" fill="url(#paint0_linear_10_98)"/>
<path d="M160.93 191.486C158.158 191.486 155.764 190.946 153.748 189.866C151.768 188.75 150.22 187.184 149.104 185.168C148.024 183.152 147.484 180.74 147.484 177.932C147.484 175.196 148.024 172.82 149.104 170.804C150.184 168.752 151.66 167.15 153.532 165.998C155.44 164.846 157.636 164.27 160.12 164.27C161.884 164.27 163.468 164.576 164.872 165.188C166.276 165.764 167.464 166.61 168.436 167.726C169.444 168.842 170.2 170.192 170.704 171.776C171.244 173.36 171.514 175.142 171.514 177.122C171.514 177.698 171.352 178.13 171.028 178.418C170.704 178.67 170.236 178.796 169.624 178.796H150.832V175.934H168.598L167.734 176.636C167.734 174.692 167.446 173.054 166.87 171.722C166.294 170.354 165.448 169.31 164.332 168.59C163.252 167.87 161.884 167.51 160.228 167.51C158.392 167.51 156.826 167.942 155.53 168.806C154.27 169.634 153.316 170.804 152.668 172.316C152.02 173.792 151.696 175.52 151.696 177.5V177.824C151.696 181.136 152.488 183.656 154.072 185.384C155.692 187.112 157.978 187.976 160.93 187.976C162.154 187.976 163.36 187.814 164.548 187.49C165.772 187.166 166.96 186.626 168.112 185.87C168.616 185.546 169.066 185.402 169.462 185.438C169.894 185.438 170.236 185.564 170.488 185.816C170.74 186.032 170.902 186.32 170.974 186.68C171.082 187.004 171.046 187.364 170.866 187.76C170.722 188.156 170.416 188.498 169.948 188.786C168.76 189.65 167.356 190.316 165.736 190.784C164.116 191.252 162.514 191.486 160.93 191.486ZM187.834 191.486C185.494 191.486 183.442 190.928 181.678 189.812C179.95 188.696 178.6 187.13 177.628 185.114C176.692 183.062 176.224 180.65 176.224 177.878C176.224 175.07 176.692 172.658 177.628 170.642C178.6 168.59 179.95 167.024 181.678 165.944C183.442 164.828 185.494 164.27 187.834 164.27C190.21 164.27 192.244 164.864 193.936 166.052C195.628 167.24 196.762 168.842 197.338 170.858H196.744V154.766C196.744 154.046 196.924 153.506 197.284 153.146C197.68 152.75 198.238 152.552 198.958 152.552C199.642 152.552 200.164 152.75 200.524 153.146C200.92 153.506 201.118 154.046 201.118 154.766V189.11C201.118 189.83 200.938 190.388 200.578 190.784C200.218 191.18 199.678 191.378 198.958 191.378C198.274 191.378 197.734 191.18 197.338 190.784C196.978 190.388 196.798 189.83 196.798 189.11V183.98L197.392 184.736C196.816 186.788 195.664 188.426 193.936 189.65C192.244 190.874 190.21 191.486 187.834 191.486ZM188.752 187.976C190.372 187.976 191.794 187.58 193.018 186.788C194.242 185.996 195.178 184.844 195.826 183.332C196.51 181.82 196.852 180.002 196.852 177.878C196.852 174.602 196.114 172.1 194.638 170.372C193.198 168.644 191.236 167.78 188.752 167.78C187.096 167.78 185.656 168.176 184.432 168.968C183.244 169.724 182.308 170.858 181.624 172.37C180.976 173.846 180.652 175.682 180.652 177.878C180.652 181.118 181.39 183.62 182.866 185.384C184.342 187.112 186.304 187.976 188.752 187.976ZM218.615 191.486C216.491 191.486 214.727 191.108 213.323 190.352C211.955 189.56 210.911 188.39 210.191 186.842C209.507 185.294 209.165 183.368 209.165 181.064V166.592C209.165 165.836 209.345 165.278 209.705 164.918C210.101 164.558 210.641 164.378 211.325 164.378C212.045 164.378 212.585 164.558 212.945 164.918C213.341 165.278 213.539 165.836 213.539 166.592V181.01C213.539 183.314 214.007 185.042 214.943 186.194C215.915 187.31 217.427 187.868 219.479 187.868C221.711 187.868 223.529 187.112 224.933 185.6C226.337 184.088 227.039 182.108 227.039 179.66V166.592C227.039 165.836 227.219 165.278 227.579 164.918C227.975 164.558 228.533 164.378 229.253 164.378C229.937 164.378 230.459 164.558 230.819 164.918C231.215 165.278 231.413 165.836 231.413 166.592V189.11C231.413 190.622 230.711 191.378 229.307 191.378C228.623 191.378 228.083 191.18 227.687 190.784C227.327 190.388 227.147 189.83 227.147 189.11V184.196L227.849 184.952C227.129 187.076 225.941 188.696 224.285 189.812C222.665 190.928 220.775 191.486 218.615 191.486ZM256.66 191.486C252.916 191.486 249.712 190.694 247.048 189.11C244.384 187.526 242.332 185.276 240.892 182.36C239.488 179.444 238.786 175.97 238.786 171.938C238.786 168.914 239.182 166.214 239.974 163.838C240.802 161.426 241.972 159.392 243.484 157.736C245.032 156.044 246.922 154.748 249.154 153.848C251.386 152.912 253.888 152.444 256.66 152.444C258.892 152.444 261.016 152.768 263.032 153.416C265.048 154.028 266.794 154.946 268.27 156.17C268.738 156.53 269.044 156.944 269.188 157.412C269.368 157.844 269.386 158.276 269.242 158.708C269.134 159.104 268.918 159.446 268.594 159.734C268.306 159.986 267.946 160.112 267.514 160.112C267.082 160.112 266.596 159.932 266.056 159.572C264.76 158.528 263.338 157.754 261.79 157.25C260.242 156.746 258.568 156.494 256.768 156.494C253.924 156.494 251.512 157.106 249.532 158.33C247.552 159.518 246.058 161.264 245.05 163.568C244.042 165.872 243.538 168.662 243.538 171.938C243.538 175.214 244.042 178.022 245.05 180.362C246.058 182.666 247.552 184.43 249.532 185.654C251.512 186.842 253.924 187.436 256.768 187.436C258.532 187.436 260.206 187.184 261.79 186.68C263.374 186.14 264.832 185.348 266.164 184.304C266.704 183.944 267.19 183.782 267.622 183.818C268.054 183.818 268.414 183.944 268.702 184.196C268.99 184.448 269.188 184.772 269.296 185.168C269.44 185.564 269.44 185.978 269.296 186.41C269.188 186.842 268.918 187.22 268.486 187.544C266.974 188.84 265.192 189.83 263.14 190.514C261.124 191.162 258.964 191.486 256.66 191.486ZM284.94 191.486C282.384 191.486 280.17 190.928 278.298 189.812C276.426 188.696 274.968 187.13 273.924 185.114C272.916 183.062 272.412 180.65 272.412 177.878C272.412 175.79 272.7 173.918 273.276 172.262C273.852 170.57 274.698 169.13 275.814 167.942C276.93 166.754 278.244 165.854 279.756 165.242C281.304 164.594 283.032 164.27 284.94 164.27C287.496 164.27 289.71 164.828 291.582 165.944C293.454 167.06 294.894 168.644 295.902 170.696C296.946 172.712 297.468 175.106 297.468 177.878C297.468 179.966 297.18 181.838 296.604 183.494C296.028 185.15 295.182 186.59 294.066 187.814C292.95 189.002 291.618 189.92 290.07 190.568C288.558 191.18 286.848 191.486 284.94 191.486ZM284.94 187.976C286.56 187.976 287.982 187.58 289.206 186.788C290.43 185.996 291.366 184.844 292.014 183.332C292.698 181.82 293.04 180.002 293.04 177.878C293.04 174.602 292.302 172.1 290.826 170.372C289.386 168.644 287.424 167.78 284.94 167.78C283.284 167.78 281.844 168.176 280.62 168.968C279.432 169.724 278.496 170.858 277.812 172.37C277.164 173.846 276.84 175.682 276.84 177.878C276.84 181.118 277.578 183.62 279.054 185.384C280.53 187.112 282.492 187.976 284.94 187.976ZM314.946 191.486C312.39 191.486 310.176 190.928 308.304 189.812C306.432 188.696 304.974 187.13 303.93 185.114C302.922 183.062 302.418 180.65 302.418 177.878C302.418 175.79 302.706 173.918 303.282 172.262C303.858 170.57 304.704 169.13 305.82 167.942C306.936 166.754 308.25 165.854 309.762 165.242C311.31 164.594 313.038 164.27 314.946 164.27C317.502 164.27 319.716 164.828 321.588 165.944C323.46 167.06 324.9 168.644 325.908 170.696C326.952 172.712 327.474 175.106 327.474 177.878C327.474 179.966 327.186 181.838 326.61 183.494C326.034 185.15 325.188 186.59 324.072 187.814C322.956 189.002 321.624 189.92 320.076 190.568C318.564 191.18 316.854 191.486 314.946 191.486ZM314.946 187.976C316.566 187.976 317.988 187.58 319.212 186.788C320.436 185.996 321.372 184.844 322.02 183.332C322.704 181.82 323.046 180.002 323.046 177.878C323.046 174.602 322.308 172.1 320.832 170.372C319.392 168.644 317.43 167.78 314.946 167.78C313.29 167.78 311.85 168.176 310.626 168.968C309.438 169.724 308.502 170.858 307.818 172.37C307.17 173.846 306.846 175.682 306.846 177.878C306.846 181.118 307.584 183.62 309.06 185.384C310.536 187.112 312.498 187.976 314.946 187.976ZM342.035 191.486C339.443 191.486 337.463 190.694 336.095 189.11C334.727 187.526 334.043 185.258 334.043 182.306V154.766C334.043 154.046 334.223 153.506 334.583 153.146C334.943 152.75 335.483 152.552 336.203 152.552C336.887 152.552 337.427 152.75 337.823 153.146C338.219 153.506 338.417 154.046 338.417 154.766V181.982C338.417 183.926 338.795 185.384 339.551 186.356C340.343 187.292 341.495 187.76 343.007 187.76C343.331 187.76 343.619 187.742 343.871 187.706C344.123 187.67 344.375 187.652 344.627 187.652C345.023 187.616 345.293 187.706 345.437 187.922C345.617 188.138 345.707 188.57 345.707 189.218C345.707 189.866 345.563 190.352 345.275 190.676C344.987 191 344.519 191.216 343.871 191.324C343.583 191.36 343.277 191.396 342.953 191.432C342.629 191.468 342.323 191.486 342.035 191.486Z" fill="black"/>
<defs>
<linearGradient id="paint0_linear_10_98" x1="250.868" y1="1.34378e-05" x2="249.132" y2="345" gradientUnits="userSpaceOnUse">
<stop stop-color="#1196A0"/>
<stop offset="1" stop-color="#169D61"/>
</linearGradient>
</defs>
</svg>
